X: 1
T: Kimmel's
M: 6/8
L: 1/8
R: jig
K: Bmin
B,2C |: DB,A, B,DE | FdB AFE | ~D3 ~C3 | ~D3 ~C3 |
DB,A, B,DE | FdB AFE | ~F3 EDE |1 FB,B, B,2C :|2 FB,B, B,3 |]
|: A,DF A3 | ABA AFE | DFA B3 | BdB AFE |
~D3 EDE | FdB AFE | ~F3 EDE |1 FB,B, B,3 :|2 FB,B, B,2C |]
